Resources/DefaultStyle.bundle/poi_beacon.svg

<svg width="18" height="18" viewBox="0 0 18 18" fill="none" xmlns="http://www.w3.org/2000/svg">
<circle cx="9" cy="9" r="8.5" fill="#808080" stroke="white"/>
<path d="M6.95 10.05C6.78431 10.2157 6.51316 10.2173 6.36804 10.0333C6.17761 9.79193 6.0236 9.53082 5.906 9.25001C5.73533 8.84168 5.65 8.42501 5.65 8.00001C5.65 7.57501 5.73533 7.15835 5.906 6.75001C6.02502 6.46581 6.18133 6.20179 6.37495 5.95796C6.51683 5.77928 6.78078 5.78079 6.94211 5.94212C7.10947 6.10948 7.09809 6.38105 6.95661 6.5708C6.84727 6.71744 6.75757 6.87718 6.6875 7.05001C6.5625 7.35835 6.5 7.67501 6.5 8.00001C6.5 8.30001 6.5625 8.60418 6.6875 8.91251C6.7613 9.09455 6.85689 9.26643 6.97426 9.42814C7.1119 9.61777 7.11569 9.88433 6.95 10.05ZM12.8381 11.2387C12.6859 11.4169 12.4157 11.4157 12.25 11.25C12.0843 11.0843 12.0864 10.8171 12.2341 10.6352C12.4952 10.3134 12.7005 9.95785 12.85 9.56851C13.05 9.04785 13.15 8.52501 13.15 8.00001C13.15 7.47501 13.05 6.95201 12.85 6.43101C12.6999 6.04023 12.4935 5.68344 12.2307 5.36063C12.0847 5.18124 12.0826 4.91742 12.2462 4.75386C12.4127 4.58732 12.6852 4.58983 12.8342 4.77224C13.1714 5.1852 13.4372 5.63195 13.6315 6.11251C13.8772 6.72085 14 7.35001 14 8.00001C14 8.65001 13.8833 9.27918 13.65 9.88751C13.4641 10.3723 13.1934 10.8227 12.8381 11.2387ZM5.75385 11.2462C5.58731 11.4127 5.31481 11.4102 5.16585 11.2278C4.82861 10.8148 4.56283 10.3681 4.3685 9.88751C4.12283 9.27918 4 8.65001 4 8.00001C4 7.35001 4.12283 6.72085 4.3685 6.11251C4.56283 5.63195 4.82861 5.1852 5.16585 4.77224C5.31481 4.58983 5.58731 4.58732 5.75385 4.75386C5.91741 4.91742 5.91534 5.18124 5.76932 5.36063C5.50655 5.68344 5.30011 6.04023 5.15 6.43101C4.95 6.95201 4.85 7.47501 4.85 8.00001C4.85 8.52501 4.95 9.04785 5.15 9.56851C5.30011 9.95955 5.50655 10.3165 5.76933 10.6394C5.91534 10.8188 5.91741 11.0826 5.75385 11.2462ZM11.625 10.0421C11.4832 10.2207 11.2192 10.2192 11.0579 10.0579C10.8905 9.89054 10.9019 9.61898 11.0434 9.42923C11.1527 9.28258 11.2424 9.12284 11.3125 8.95001C11.4375 8.64168 11.5 8.32501 11.5 8.00001C11.5 7.70001 11.4375 7.39585 11.3125 7.08751C11.2387 6.90547 11.1431 6.73359 11.0257 6.57188C10.8881 6.38226 10.8843 6.1157 11.05 5.95001C11.2157 5.78433 11.4871 5.78262 11.6308 5.96765C11.8182 6.20878 11.9663 6.46957 12.075 6.75001C12.2333 7.15835 12.325 7.57501 12.35 8.00001C12.35 8.42501 12.2647 8.84168 12.094 9.25001C11.975 9.53421 11.8187 9.79823 11.625 10.0421ZM7.159 14C6.8348 14 6.60587 13.6824 6.70839 13.3748L8.1875 8.93751C8.05417 8.82085 7.948 8.68335 7.869 8.52501C7.78967 8.36668 7.75 8.19168 7.75 8.00001C7.75 7.65001 7.87083 7.35418 8.1125 7.11251C8.35417 6.87085 8.65 6.75001 9 6.75001C9.35 6.75001 9.64583 6.87085 9.8875 7.11251C10.1292 7.35418 10.25 7.65001 10.25 8.00001C10.25 8.19168 10.2103 8.36668 10.131 8.52501C10.052 8.68335 9.94583 8.82085 9.8125 8.93751L11.2925 13.3774C11.3946 13.6837 11.1666 14 10.8437 14C10.6387 14 10.4571 13.8681 10.3938 13.6732L10.175 13H7.8375L7.60904 13.6769C7.54388 13.87 7.36279 14 7.159 14ZM8.1625 12H9.8375L9 9.50001L8.1625 12Z" fill="white"/>
</svg>

<svg width="18" height="18" viewBox="0 0 18 18" fill="none" xmlns="http://www.w3.org/2000/svg"><circle cx="9" cy="9" r="8.5" fill="gray" stroke="#fff"/><path d="M6.95 10.05c-.166.166-.437.167-.582-.017a3.4 3.4 0 0 1-.462-.783A3.2 3.2 0 0 1 5.65 8q0-.638.256-1.25.178-.426.469-.792c.142-.179.406-.177.567-.016.167.167.156.439.015.629q-.165.22-.27.479A2.5 2.5 0 0 0 6.5 8q0 .45.188.913.11.273.286.515c.138.19.142.456-.024.622m5.888 1.189a.4.4 0 0 1-.588.011.46.46 0 0 1-.016-.615q.391-.483.616-1.066.3-.782.3-1.569 0-.788-.3-1.569a3.9 3.9 0 0 0-.62-1.07.454.454 0 0 1 .016-.607.396.396 0 0 1 .588.018q.506.62.798 1.34Q14 7.026 14 8q0 .976-.35 1.888a4.6 4.6 0 0 1-.812 1.35m-7.084.007a.396.396 0 0 1-.588-.018 5.2 5.2 0 0 1-.798-1.34A5 5 0 0 1 4 8q0-.976.369-1.887.291-.722.797-1.34a.396.396 0 0 1 .588-.02.454.454 0 0 1 .015.608 3.9 3.9 0 0 0-.619 1.07A4.4 4.4 0 0 0 4.85 8q0 .788.3 1.569a3.9 3.9 0 0 0 .62 1.07.454.454 0 0 1-.016.607m5.871-1.204c-.142.179-.406.177-.567.016-.168-.167-.156-.439-.015-.629q.165-.22.27-.479.187-.462.187-.95 0-.45-.187-.912a2.4 2.4 0 0 0-.287-.516c-.138-.19-.142-.456.024-.622s.437-.167.58.018q.282.361.445.782.237.612.275 1.25 0 .638-.256 1.25a3.4 3.4 0 0 1-.469.792M7.159 14a.475.475 0 0 1-.45-.625l1.479-4.437a1.3 1.3 0 0 1-.319-.413A1.16 1.16 0 0 1 7.75 8q0-.525.363-.887.362-.363.887-.363t.887.363.363.887q0 .288-.119.525a1.3 1.3 0 0 1-.319.413l1.48 4.44a.473.473 0 1 1-.898.295L10.175 13H7.837l-.228.677a.475.475 0 0 1-.45.323m1.003-2h1.675L9 9.5z" fill="#fff"/></svg>
